src/pos-icons/format-section.svg

<svg height="24" viewBox="0 0 24 24" width="24" xmlns="http://www.w3.org/2000/svg"><path d="m15.67 4.42c-.97-.58-2.09-.88-3.22-.86-1.58 0-2.79.78-2.79 2 0 1.4 1.34 1.91 3.34 2.58 2.5.81 4.4 1.83 4.4 4.24-.04 1.31-.71 2.51-1.8 3.23.65.61 1.01 1.47 1 2.36 0 2.82-2.6 4-5.1 4-1.46.06-2.91-.33-4.15-1.1l.65-1.53c1.04.71 2.27 1.09 3.53 1.1 1.72 0 3-.78 3-2.2 0-1.24-.78-1.93-3.28-2.79-2.75-.95-4.65-1.95-4.65-4.24.07-1.32.83-2.52 2-3.14-.63-.57-.99-1.4-1-2.26 0-2.36 2.17-3.81 4.93-3.81 1.29 0 2.56.29 3.7.89zm-4.32 9c1.06.33 2.09.76 3.06 1.29.65-.49 1.02-1.26 1-2.07 0-1-.64-1.88-2.41-2.5-1.11-.37-2.22-.83-3.28-1.37-.75.45-1.22 1.26-1.22 2.14 0 .97.73 1.77 2.85 2.51z"/></svg>

<?xml version="1.0" encoding="UTF-8"?><!DOCTYPE svg PUBLIC "-//W3C//DTD SVG 1.1//EN" "http://www.w3.org/Graphics/SVG/1.1/DTD/svg11.dtd"><svg xmlns="http://www.w3.org/2000/svg" xmlns:xlink="http://www.w3.org/1999/xlink" version="1.1" id="mdi-format-section" width="24" height="24" viewBox="0 0 24 24"><path d="M15.67,4.42C14.7,3.84 13.58,3.54 12.45,3.56C10.87,3.56 9.66,4.34 9.66,5.56C9.66,6.96 11,7.47 13,8.14C15.5,8.95 17.4,9.97 17.4,12.38C17.36,13.69 16.69,14.89 15.6,15.61C16.25,16.22 16.61,17.08 16.6,17.97C16.6,20.79 14,21.97 11.5,21.97C10.04,22.03 8.59,21.64 7.35,20.87L8,19.34C9.04,20.05 10.27,20.43 11.53,20.44C13.25,20.44 14.53,19.66 14.53,18.24C14.53,17 13.75,16.31 11.25,15.45C8.5,14.5 6.6,13.5 6.6,11.21C6.67,9.89 7.43,8.69 8.6,8.07C7.97,7.5 7.61,6.67 7.6,5.81C7.6,3.45 9.77,2 12.53,2C13.82,2 15.09,2.29 16.23,2.89L15.67,4.42M11.35,13.42C12.41,13.75 13.44,14.18 14.41,14.71C15.06,14.22 15.43,13.45 15.41,12.64C15.41,11.64 14.77,10.76 13,10.14C11.89,9.77 10.78,9.31 9.72,8.77C8.97,9.22 8.5,10.03 8.5,10.91C8.5,11.88 9.23,12.68 11.35,13.42Z" /></svg>
